icons/ArrowCornerUpLeft.svg

<svg width="24" height="24" viewBox="0 0 24 24" fill="none" xmlns="http://www.w3.org/2000/svg">
<path fill-rule="evenodd" clip-rule="evenodd" d="M4.46967,8.53033c-0.29289,-0.29289 -0.29289,-0.76777 0,-1.06066l4,-4c0.29289,-0.29289 0.76777,-0.29289 1.06066,0c0.29289,0.29289 0.29289,0.76777 0,1.06066l-2.71967,2.71967h9.68934c1.5188,0 2.75,1.23122 2.75,2.75v11c0,0.4142 -0.3358,0.75 -0.75,0.75c-0.4142,0 -0.75,-0.3358 -0.75,-0.75v-11c0,-0.69036 -0.5596,-1.25 -1.25,-1.25h-9.68934l2.71967,2.7197c0.29289,0.2929 0.29289,0.7677 0,1.0606c-0.29289,0.2929 -0.76777,0.2929 -1.06066,0z" fill="#002B51"/>
</svg>

<svg width="24" height="24" viewBox="0 0 24 24" fill="none" xmlns="http://www.w3.org/2000/svg">
<path fill-rule="evenodd" clip-rule="evenodd" d="M4.46967 8.53033C4.17678 8.23744 4.17678 7.76256 4.46967 7.46967L8.46967 3.46967C8.76256 3.17678 9.23744 3.17678 9.53033 3.46967C9.82322 3.76256 9.82322 4.23744 9.53033 4.53033L6.81066 7.25H16.5C18.0188 7.25 19.25 8.48122 19.25 10V21C19.25 21.4142 18.9142 21.75 18.5 21.75C18.0858 21.75 17.75 21.4142 17.75 21V10C17.75 9.30964 17.1904 8.75 16.5 8.75H6.81066L9.53033 11.4697C9.82322 11.7626 9.82322 12.2374 9.53033 12.5303C9.23744 12.8232 8.76256 12.8232 8.46967 12.5303L4.46967 8.53033Z" fill="#002B51"/>
</svg>
